Assets/Icons/interaction/upload.svg

<svg enable-background="new 0 0 60 60" viewBox="0 0 60 60" xmlns="http://www.w3.org/2000/svg"><path d="m58 39h-2c-.28 0-.5.22-.5.5v16h-42.5c-4.69 0-8.5-3.81-8.5-8.5v-7.5c0-.28-.22-.5-.5-.5-1.38 0-2.5 1.12-2.5 2.5v5.5c0 6.35 5.15 11.5 11.5 11.5h43.5c1.1 0 2-.9 2-2v-17c0-.28-.22-.5-.5-.5z"/><path d="m17.83 17.29 10.67-10.67v39.88c0 1.38 1.12 2.5 2.5 2.5.28 0 .5-.22.5-.5v-41.88l10.67 10.67c.98.98 2.56.98 3.54 0 .2-.2.2-.51 0-.71l-14.3-14.29c-.78-.78-2.05-.78-2.83 0l-14.29 14.3c-.2.2-.2.51 0 .71.98.97 2.56.97 3.54-.01z"/></svg>

<?xml version="1.0" encoding="utf-8"?>
<!-- Generator: Adobe Illustrator 21.1.0, SVG Export Plug-In . SVG Version: 6.00 Build 0)  -->
<svg version="1.1" id="eps" xmlns="http://www.w3.org/2000/svg" xmlns:xlink="http://www.w3.org/1999/xlink" x="0px" y="0px"
	 viewBox="0 0 60 60" style="enable-background:new 0 0 60 60;" xml:space="preserve">
<g>
	<path d="M58,39h-2c-0.28,0-0.5,0.22-0.5,0.5v16H13c-4.69,0-8.5-3.81-8.5-8.5v-7.5C4.5,39.22,4.28,39,4,39c-1.38,0-2.5,1.12-2.5,2.5
		V47c0,6.35,5.15,11.5,11.5,11.5h43.5c1.1,0,2-0.9,2-2v-17C58.5,39.22,58.28,39,58,39z"/>
	<path d="M17.83,17.29L28.5,6.62V46.5c0,1.38,1.12,2.5,2.5,2.5c0.28,0,0.5-0.22,0.5-0.5V6.62l10.67,10.67
		c0.98,0.98,2.56,0.98,3.54,0c0.2-0.2,0.2-0.51,0-0.71L31.41,2.29c-0.78-0.78-2.05-0.78-2.83,0l-14.29,14.3
		c-0.2,0.2-0.2,0.51,0,0.71C15.27,18.27,16.85,18.27,17.83,17.29z"/>
</g>
</svg>
